X:14188
T:Reilly's Reel
M:2/4
L:1/16
K:G
B,E2F G2FE|D2FE ADFD|B,E2F G2A2|B2(3cBA BGE2|!
B,E2F G2FE|D2FD ADFD|B,E2F G2A2|B2(3cBA BGE2:|!
|:B2BA Bee2|B2BA BGE2|B2BA Beef|gef^d e4|!
B2BA Bee2|B2BA BGE2|B2BA Beef|gef^d e4:|!
